X: 1
T: Angus McLeod of Achgarve
C: Jimmy Shand
R: jig
B: Jimmy Shand, Scottish Dance Album Book 2 (1953) Pub. James S.Kerr, Glasgow
Z: 2005 John Chambers <jc:trillian.mit.edu>
M: 6/8
L: 1/8
K: A
e2 \
| "A"A>AA c2a | {fg}f>eA {cd}c2B | {e}A<af {ef}e>cA | "G"{Bc}B<=Ge {de}d>GB |
|  "A"A>AA c2a | {fg}f>eA {de}c2{e}A | "G"{Bc}B<=Ge {de}d>GB | "A"{efe}A3 {AB}A2 :|
|: cd \
| "A"{ef}e2a a2f | "A"{efe}f>eA {cd}c2a | {a}A>ca {fg}f>eA | "G"B<=Ge {de}d>GB |
|1 "A"{fg}A2a {ab}a2f | "A"{fgf}f>eA {efe}c2A | "G"B<=Ge {de}d>GB | "A"{efe}A3 {AB}A2 :|
|2 "A"A>AA c2a | {fg}f>eA {de}c2{e}A | "G"{Bc}B<=Ge {de}d>GB | "A"{efe}A3 {AB}A2 :|
|: e2 \
| "A"A>ca A>cf | {f}A>ca {cd}c>BA | "A"{ga}A<af {ef}e>cA | "G"{ef}B<=Ge {de}d>GB |
| "A"{ga}A>ca A>cf | A>ca {cd}c>BA | "G"B<=Ge {de}d>GB | "A"{ga}A3 A2 :|
|: cd \
| "A"e2a A>ca | "D"{de}d>fa "A"{cd}c2a | "A"{ef}e2a A>ca | "G"B<=Ge {de}d>GB |
|1 "A"{ef}e2a A>{d}ca | "D"{dc}d>fa "A"{cd}c2a | "G"B<=Ge {de}d>GB | "A"{Bc}A3 {AB}A2 :|
|2 "A"{ga}A>ca A>cf | "A"{cB}A>ca {cd}c>BA | "G"B<=Ge {de}d>GB | "A"{ga}A3 {AB}A2 :

%%sep 1 1 500

